docs/auto/img/u+-logo.svg

<?xml version="1.0" encoding="UTF-8"?>
<svg width="114px" height="27px" viewBox="0 0 114 27" version="1.1" xmlns="http://www.w3.org/2000/svg" xmlns:xlink="http://www.w3.org/1999/xlink">
    <title>u+-logo</title>
    <g id="Page-1" stroke="none" stroke-width="1" fill="none" fill-rule="evenodd">
        <g id="u+-logo" fill="#FFFFFF" fill-rule="nonzero">
            <path d="M13.5,27 C6.05801272,26.9671463 0.0333477185,21.0317356 0,13.7 L0,0 L3.85714286,0 L3.85714286,13.7 C3.85714297,18.946705 8.17439713,23.1999998 13.5,23.1999998 C18.8256029,23.1999998 23.142857,18.946705 23.1428571,13.7 L27,13.7 C26.9666523,21.0317356 20.9419873,26.9671463 13.5,27 Z" id="Path"></path>
            <polygon id="Path" opacity="0.4" points="30 3.66666667 26.4 3.66666667 26.4 0 22.6 0 22.6 3.66666667 19 3.66666667 19 7.33333333 22.6 7.33333333 22.6 11 26.4 11 26.4 7.33333333 30 7.33333333"></polygon>
            <path d="M44.7190554,0 L55,27 L50.4397394,27 L47.9967427,20 L37.0236156,20 L34.5399023,27 L30,27 L40.2809446,0 L44.7190554,0 Z M38.0720684,16.61 L46.9482899,16.61 L42.4491042,4.12 L38.0720684,16.61 Z" id="Shape"></path>
            <path d="M61.1554169,7 L61.1554169,18.5277778 C61.1554169,21.4444444 62.554169,23.1011905 65.6171299,23.1011905 C69.0374362,23.1011905 70.7220647,21.1170635 70.7220647,18.6865079 L70.7220647,7 L75,7 L75,26.6527778 L71.7430516,26.6527778 L71.2019285,23.7857143 C69.9563244,25.859127 68.0062394,27 64.7084515,27 C59.6035167,27 57,24.0238095 57,18.7956349 L57,7 L61.1554169,7 Z" id="Path"></path>
            <path d="M85.6666667,1 L85.6666667,6.81739812 L90.0821256,6.81739812 L90.0821256,9.92476489 L85.6666667,9.92476489 L85.6666667,20.4796238 C85.6666667,22.2319749 86.2850242,23.4749216 88.0531401,23.4749216 C88.8424308,23.4421551 89.6294335,23.3639298 90.410628,23.2405956 L91,26.2257053 C89.8658322,26.7092116 88.6578363,26.9715644 87.4347826,27 C83.1256039,27 81.6376812,24.7484326 81.6376812,20.0517241 L81.6376812,9.92476489 L79,9.92476489 L79,7.39811912 L81.6859903,6.85815047 L82.3140097,1 L85.6666667,1 Z" id="Path"></path>
            <path d="M103.483945,7.00397658 C106.290362,6.92700352 109.006043,7.97029411 110.994174,9.88920206 C112.982306,11.80811 114.068011,14.4338463 113.996696,17.1506893 C113.819701,22.6393269 109.172089,27 103.499284,27 C97.8264801,27 93.1788676,22.6393269 93.0018731,17.1506893 C92.9485474,14.4441192 94.0357729,11.8331624 96.0132206,9.91898031 C97.9906684,8.00479819 100.68792,6.95235696 103.483945,7.00397658 Z M97.348098,17.1506893 C97.348098,20.8431028 99.9149272,23.7138801 103.483945,23.7138801 C107.052962,23.7138801 109.68115,20.8431028 109.68115,17.1506893 C109.68115,13.4582758 107.063189,10.5874985 103.483945,10.5874985 C99.9047008,10.5874985 97.3276452,13.3790819 97.3276452,17.1506893 L97.348098,17.1506893 Z" id="Shape"></path>
        </g>
    </g>
</svg>

<svg width="114" height="27" xmlns="http://www.w3.org/2000/svg"><g fill="#FFF"><path d="M13.5 27C6.058 26.967.033 21.032 0 13.7V0h3.857v13.7c0 5.247 4.317 9.5 9.643 9.5 5.326 0 9.643-4.253 9.643-9.5H27c-.033 7.332-6.058 13.267-13.5 13.3z"/><path opacity=".4" d="M30 3.667h-3.6V0h-3.8v3.667H19v3.666h3.6V11h3.8V7.333H30z"/><path d="M44.72 0L55 27h-4.56l-2.443-7H37.024l-2.484 7H30L40.28 0h4.44zm-6.648 16.61h8.876L42.45 4.12l-4.377 12.49zM61.155 7v11.528c0 2.916 1.4 4.573 4.462 4.573 3.42 0 5.105-1.984 5.105-4.414V7H75v19.653h-3.257l-.541-2.867C69.956 25.859 68.006 27 64.708 27 59.604 27 57 24.024 57 18.796V7h4.155zm24.512-6v5.817h4.415v3.108h-4.415V20.48c0 1.752.618 2.995 2.386 2.995.79-.033 1.576-.111 2.358-.234L91 26.226a9.658 9.658 0 01-3.565.774c-4.31 0-5.797-2.252-5.797-6.948V9.925H79V7.398l2.686-.54L82.314 1h3.353zm17.817 6.004c2.806-.077 5.522.966 7.51 2.885 1.988 1.92 3.074 4.545 3.003 7.262-.177 5.488-4.825 9.849-10.498 9.849-5.673 0-10.32-4.36-10.497-9.85-.053-2.706 1.034-5.317 3.011-7.231 1.978-1.914 4.675-2.967 7.47-2.915zm-6.136 10.147c0 3.692 2.567 6.563 6.136 6.563s6.197-2.87 6.197-6.563c0-3.693-2.618-6.564-6.197-6.564-3.58 0-6.156 2.792-6.156 6.564h.02z"/></g></svg>
